brandFactory_export/1.Light/Pantalla completa_1Light.svg

<?xml version="1.0" encoding="UTF-8"?>
<svg width="24px" height="24px" viewBox="0 0 24 24" version="1.1" xmlns="http://www.w3.org/2000/svg" xmlns:xlink="http://www.w3.org/1999/xlink">
    <title>1.Light/Pantalla completa_1Light</title>
    <g id="Symbols" stroke="none" stroke-width="1" fill="none" fill-rule="evenodd">
        <g id="1.Light/Pantalla-completa_1Light" fill="#5CB615" fill-rule="nonzero">
            <path d="M0.695798319,8.00336134 C0.312605042,8.00336134 0,7.69411765 0,7.31092437 L0,0.695798319 C0,0.312605042 0.312605042,0 0.695798319,0 L7.31092437,0 C7.69411765,0 8.00672269,0.312605042 8.00672269,0.695798319 C8.00672269,1.0789916 7.69411765,1.39159664 7.31092437,1.39159664 L1.39159664,1.39159664 L1.39159664,7.31092437 C1.39159664,7.69411765 1.0789916,8.00336134 0.695798319,8.00336134 Z M7.32436975,22.2352941 C7.70756303,22.2352941 8.02016807,22.5478992 8.02016807,22.9310924 C8.02016807,23.3142857 7.70756303,23.6268908 7.32436975,23.6268908 L0.695798319,23.6268908 C0.312605042,23.6235294 0,23.3142857 0,22.9310924 L0,16.3159664 C0,15.9327731 0.309243697,15.6201681 0.692436975,15.6201681 C1.07226891,15.6268908 1.38151261,15.9327731 1.38823529,16.312605 L1.38823529,22.2319328 C1.39159664,22.2352941 7.32436975,22.2352941 7.32436975,22.2352941 Z M22.9277311,15.6067227 C23.307563,15.6134454 23.6134454,15.9226891 23.6201681,16.302521 L23.6201681,22.9310924 C23.6201681,23.3142857 23.3109244,23.6235294 22.9277311,23.6235294 L16.2991597,23.6235294 C15.9159664,23.6235294 15.6033613,23.3109244 15.6033613,22.9277311 C15.6033613,22.5445378 15.9159664,22.2319328 16.2991597,22.2319328 L22.2352941,22.2319328 L22.2352941,16.2991597 C22.2352941,15.9159664 22.5445378,15.6067227 22.9277311,15.6067227 L22.9277311,15.6067227 Z M22.9277311,0 C23.3109244,0 23.6235294,0.309243697 23.6235294,0.692436975 L23.6235294,7.33781513 C23.6235294,7.7210084 23.3142857,8.0302521 22.9310924,8.0302521 C22.5478992,8.0302521 22.2386555,7.7210084 22.2386555,7.33781513 L22.2386555,1.38823529 L16.312605,1.38823529 C15.9294118,1.38823529 15.6168067,1.07563025 15.6168067,0.692436975 C15.6168067,0.309243697 15.9294118,0 16.312605,0 L22.9277311,0 L22.9277311,0 Z" id="Pantalla-completa_1Light"></path>
        </g>
    </g>
</svg>

<svg width="24" height="24" viewBox="0 0 24 24" xmlns="http://www.w3.org/2000/svg"><path d="M.696 8.003A.694.694 0 010 7.311V.696C0 .313.313 0 .696 0H7.31c.383 0 .696.313.696.696a.697.697 0 01-.696.696H1.39V7.31a.694.694 0 01-.695.692zm6.628 14.232c.384 0 .696.313.696.696a.697.697 0 01-.696.696H.696A.7.7 0 010 22.93v-6.615c0-.383.31-.696.692-.696.38.007.69.313.696.693v5.919c.004.003 5.936.003 5.936.003zm15.604-6.628c.38.006.685.316.692.696v6.628c0 .383-.31.693-.692.693h-6.629a.697.697 0 01-.696-.696c0-.383.313-.696.696-.696h5.936v-5.933c0-.383.31-.692.693-.692zm0-15.607c.383 0 .696.31.696.692v6.646a.691.691 0 11-1.385 0v-5.95h-5.926a.694.694 0 110-1.388h6.615z" fill="#5CB615" fill-rule="nonzero"/></svg>
